packages/icons/svgs/duotone/settings-gear-duotone.svg

<svg width="24" height="24" viewBox="0 0 24 24" fill="none" xmlns="http://www.w3.org/2000/svg">
<path fill-rule="evenodd" clip-rule="evenodd" d="M9 3C9 1.34272 10.3427 0 12 0C13.6576 0 15 1.34404 15 3V3.52257C15.2987 3.62812 15.5901 3.7489 15.8736 3.88418L16.2429 3.51489C17.4144 2.34337 19.3136 2.34337 20.4851 3.51489C21.6566 4.68642 21.6566 6.58558 20.4851 7.75711L20.1158 8.12639C20.2511 8.40986 20.3719 8.70132 20.4774 9H21C22.6573 9 24 10.3427 24 12C24 13.6576 22.656 15 21 15H20.4775C20.372 15.2987 20.2513 15.5902 20.116 15.8738L20.4851 16.2429C21.6566 17.4144 21.6566 19.3136 20.4851 20.4851C19.3136 21.6566 17.4144 21.6566 16.2429 20.4851L15.8736 20.1158C15.5901 20.2511 15.2987 20.3719 15 20.4774V21C15 22.6573 13.6573 24 12 24C10.3424 24 9 22.656 9 21V20.4775C8.70132 20.372 8.40976 20.2513 8.12625 20.116L7.75711 20.4851C6.58558 21.6566 4.68642 21.6566 3.51489 20.4851C2.34337 19.3136 2.34337 17.4144 3.51489 16.2429L3.88418 15.8736C3.7489 15.5901 3.62812 15.2987 3.52257 15H3C1.34272 15 0 13.6573 0 12C0 10.3424 1.34404 9 3 9H3.52257C3.62812 8.70132 3.7489 8.40987 3.88418 8.12639L3.51489 7.75711C2.34337 6.58558 2.34337 4.68642 3.51489 3.51489C4.68642 2.34337 6.58558 2.34337 7.75711 3.51489L8.12639 3.88418C8.40987 3.7489 8.70132 3.62812 9 3.52257V3ZM12 2C11.4473 2 11 2.44728 11 3V4.262C11 4.718 10.6915 5.11625 10.25 5.23025C9.60922 5.39569 9.00596 5.64755 8.44991 5.97541C8.05709 6.20702 7.55734 6.14356 7.23489 5.82111L6.34289 4.92911C5.95242 4.53863 5.31958 4.53863 4.92911 4.92911C4.53863 5.31958 4.53863 5.95242 4.92911 6.34289L5.82111 7.23489C6.14356 7.55734 6.20702 8.05709 5.97541 8.44991C5.64755 9.00596 5.39569 9.60922 5.23025 10.25C5.11625 10.6915 4.718 11 4.262 11H3C2.44796 11 2 11.4476 2 12C2 12.5527 2.44728 13 3 13H4.262C4.718 13 5.11625 13.3085 5.23025 13.75C5.39569 14.3908 5.64755 14.994 5.97541 15.5501C6.20702 15.9429 6.14356 16.4427 5.82111 16.7651L4.92911 17.6571C4.53863 18.0476 4.53863 18.6804 4.92911 19.0709C5.31958 19.4614 5.95242 19.4614 6.34289 19.0709L7.23489 18.1789C7.55752 17.8563 8.05763 17.7929 8.4505 18.0249C9.00484 18.3523 9.60883 18.6042 10.25 18.7698C10.6915 18.8838 11 19.282 11 19.738V21C11 21.552 11.4476 22 12 22C12.5527 22 13 21.5527 13 21V19.738C13 19.282 13.3085 18.8838 13.75 18.7698C14.3908 18.6043 14.994 18.3525 15.5501 18.0246C15.9429 17.793 16.4427 17.8564 16.7651 18.1789L17.6571 19.0709C18.0476 19.4614 18.6804 19.4614 19.0709 19.0709C19.4614 18.6804 19.4614 18.0476 19.0709 17.6571L18.1789 16.7651C17.8563 16.4425 17.7929 15.9424 18.0249 15.5495C18.3523 14.9952 18.6042 14.3912 18.7698 13.75C18.8838 13.3085 19.282 13 19.738 13H21C21.552 13 22 12.5524 22 12C22 11.4473 21.5527 11 21 11H19.738C19.282 11 18.8838 10.6915 18.7698 10.25C18.6043 9.60922 18.3525 9.00596 18.0246 8.44991C17.793 8.05709 17.8564 7.55734 18.1789 7.23489L19.0709 6.34289C19.4614 5.95242 19.4614 5.31958 19.0709 4.92911C18.6804 4.53863 18.0476 4.53863 17.6571 4.92911L16.7651 5.82111C16.4427 6.14356 15.9429 6.20702 15.5501 5.97541C14.994 5.64755 14.3908 5.39569 13.75 5.23025C13.3085 5.11625 13 4.718 13 4.262V3C13 2.44796 12.5524 2 12 2Z" fill="black"/>
<path opacity="0.5" fill-rule="evenodd" clip-rule="evenodd" d="M12 10C10.8954 10 10 10.8954 10 12C10 13.1046 10.8954 14 12 14C13.1046 14 14 13.1046 14 12C14 10.8954 13.1046 10 12 10ZM8 12C8 9.79086 9.79086 8 12 8C14.2091 8 16 9.79086 16 12C16 14.2091 14.2091 16 12 16C9.79086 16 8 14.2091 8 12Z" fill="black"/>
</svg>

<svg width="24" height="24" viewBox="0 0 24 24" xmlns="http://www.w3.org/2000/svg"><path fill-rule="evenodd" clip-rule="evenodd" d="M9 3a3 3 0 1 1 6 0v.523c.299.105.59.226.874.361l.369-.37a3 3 0 1 1 4.242 4.243l-.37.37c.136.283.257.574.362.873H21a3 3 0 1 1 0 6h-.523c-.105.299-.226.59-.361.874l.37.369a3 3 0 1 1-4.243 4.242l-.37-.37a8.942 8.942 0 0 1-.873.362V21a3 3 0 1 1-6 0v-.523a8.947 8.947 0 0 1-.874-.361l-.369.37a3 3 0 1 1-4.242-4.243l.37-.37A8.96 8.96 0 0 1 3.522 15H3a3 3 0 1 1 0-6h.523a8.96 8.96 0 0 1 .361-.874l-.37-.369a3 3 0 1 1 4.243-4.242l.37.37A8.96 8.96 0 0 1 9 3.522V3Zm3-1a1 1 0 0 0-1 1v1.262a1 1 0 0 1-.75.968 6.967 6.967 0 0 0-1.8.745 1 1 0 0 1-1.215-.154l-.892-.892a1 1 0 1 0-1.414 1.414l.892.892a1 1 0 0 1 .154 1.215 6.967 6.967 0 0 0-.745 1.8 1 1 0 0 1-.968.75H3a1 1 0 0 0 0 2h1.262a1 1 0 0 1 .968.75c.166.64.418 1.244.745 1.8a1 1 0 0 1-.154 1.215l-.892.892a1 1 0 1 0 1.414 1.414l.892-.892a1 1 0 0 1 1.215-.154c.555.327 1.159.58 1.8.745a1 1 0 0 1 .75.968V21a1 1 0 0 0 2 0v-1.262a1 1 0 0 1 .75-.968 6.969 6.969 0 0 0 1.8-.745 1 1 0 0 1 1.215.154l.892.892a1 1 0 1 0 1.414-1.414l-.892-.892a1 1 0 0 1-.154-1.216c.327-.554.58-1.158.745-1.799a1 1 0 0 1 .968-.75H21a1 1 0 0 0 0-2h-1.262a1 1 0 0 1-.968-.75 6.968 6.968 0 0 0-.745-1.8 1 1 0 0 1 .154-1.215l.892-.892a1 1 0 1 0-1.414-1.414l-.892.892a1 1 0 0 1-1.215.154 6.968 6.968 0 0 0-1.8-.745 1 1 0 0 1-.75-.968V3a1 1 0 0 0-1-1Z"/><path opacity=".5" fill-rule="evenodd" clip-rule="evenodd" d="M12 10a2 2 0 1 0 0 4 2 2 0 0 0 0-4Zm-4 2a4 4 0 1 1 8 0 4 4 0 0 1-8 0Z"/></svg>
